icons/svg/amazon.svg

<svg width="24" height="24" viewBox="0 0 24 24" fill="none" xmlns="http://www.w3.org/2000/svg">
<path d="M17.2839 17.7238H19.2507C19.7938 17.7238 20.2341 18.164 20.2341 18.7071V20.6739" stroke="currentColor" stroke-width="1.3" stroke-linecap="round" stroke-linejoin="round"/>
<path fill-rule="evenodd" clip-rule="evenodd" d="M6.90132 7.11127L8.87688 7.31064C9.11306 7.33447 9.33431 7.18594 9.43484 6.9709C9.70256 6.3982 10.3587 5.38164 11.6436 5.38164C11.9022 5.38164 12.122 5.42214 12.3085 5.48897C13.3481 5.86152 13.3286 7.25841 13.3286 8.36278C13.3286 8.36278 10.9135 8.3049 9.33737 8.83858C8.87193 8.99617 8.40266 9.17175 7.97699 9.41724C6.75424 10.1224 6.20665 11.6928 6.00844 12.4388C5.93665 12.709 5.90983 12.9877 5.92854 13.2667C6.00753 14.4445 6.48588 16.4507 8.89576 16.8655C11.1434 17.2524 12.6448 16.2252 13.3253 15.5985C13.5563 15.3857 13.9378 15.3795 14.1433 15.617L15.0227 16.6339C15.2334 16.8775 15.6006 16.9071 15.8476 16.7004L17.5237 15.2979C17.7602 15.1001 17.8045 14.7534 17.6252 14.5025L17.3577 14.1279C17.1435 13.8281 16.936 13.5147 16.8412 13.1586C16.742 12.7864 16.7504 12.3954 16.7504 12.0102V6.70371C16.7504 4.33177 14.4562 3.02266 12.8101 2.85418L12.2194 2.79724C11.8961 2.76609 11.5714 2.74236 11.2473 2.763C10.8556 2.78794 10.4646 2.86089 10.0847 2.95935C8.54782 3.35765 6.73675 4.72429 6.48787 6.62321C6.45506 6.87351 6.65016 7.08592 6.90132 7.11127ZM13.3286 11.6866V10.2552C13.3286 10.2552 11.4243 10.2081 10.665 10.6181C10.3533 10.7864 10.0911 11.1092 9.8903 11.4313C9.53119 12.0073 9.43879 12.7113 9.59859 13.371C9.66533 13.6465 9.75707 13.9112 9.88083 14.0659C10.1398 14.3895 10.7574 14.505 11.0474 14.5423C11.1509 14.5556 11.255 14.5594 11.3583 14.545C11.5154 14.5232 11.7713 14.4658 12.0288 14.3145C12.4171 14.0863 12.7229 13.7195 12.9311 13.3201C13.0491 13.0939 13.1393 12.849 13.2038 12.6438C13.3008 12.3349 13.3286 12.0104 13.3286 11.6866Z" fill="currentColor"/>
<path d="M4.5 18.7072C6.43281 20.3255 9.08403 21.2553 11.8754 21.2553C13.7278 21.2553 15.5185 20.8458 17.0785 20.0973C17.2729 20.004 17.4637 19.9055 17.6506 19.8018" stroke="currentColor" stroke-width="1.5" stroke-linecap="round"/>
</svg>

<svg xmlns="http://www.w3.org/2000/svg" width="24" height="24" fill="none" viewBox="0 0 24 24"><path stroke="currentColor" stroke-linecap="round" stroke-linejoin="round" stroke-width="1.3" d="M17.284 17.724h1.967c.543 0 .983.44.983.983v1.967"/><path fill="currentColor" fill-rule="evenodd" d="m6.901 7.111 1.976.2a.57.57 0 0 0 .558-.34c.268-.573.924-1.59 2.209-1.59.258 0 .478.041.665.108 1.04.373 1.02 1.77 1.02 2.874 0 0-2.415-.058-3.992.476-.465.157-.934.333-1.36.578-1.223.705-1.77 2.276-1.969 3.022-.071.27-.098.549-.08.828.08 1.178.558 3.184 2.968 3.599 2.247.386 3.749-.64 4.43-1.267.23-.213.612-.22.817.018l.88 1.017a.59.59 0 0 0 .825.066l1.676-1.402a.59.59 0 0 0 .101-.796l-.267-.374c-.215-.3-.422-.613-.517-.97-.099-.372-.09-.763-.09-1.148V6.704c0-2.372-2.295-3.681-3.94-3.85l-.592-.057a6 6 0 0 0-.972-.034 6 6 0 0 0-1.162.196c-1.537.399-3.348 1.765-3.597 3.664-.033.25.162.463.413.488m6.428 4.576v-1.432s-1.905-.047-2.664.363c-.312.168-.574.491-.775.813a2.54 2.54 0 0 0-.291 1.94c.066.275.158.54.282.695.259.323.876.439 1.166.476q.156.022.311.003c.157-.022.413-.08.67-.23.39-.229.695-.595.903-.995.118-.226.208-.471.273-.676a3.2 3.2 0 0 0 .125-.957" clip-rule="evenodd"/><path stroke="currentColor" stroke-linecap="round" stroke-width="1.5" d="M4.5 18.707c1.933 1.619 4.584 2.548 7.375 2.548 1.853 0 3.643-.41 5.203-1.158a11 11 0 0 0 .573-.295"/></svg>
